public/images/search.svg

<svg version="1.1" xmlns="http://www.w3.org/2000/svg" xmlns:xlink="http://www.w3.org/1999/xlink" width="24px" height="24px" viewBox="0,0,256,256"><g fill="#3c4fe0" fill-rule="nonzero" stroke="none" stroke-width="1" stroke-linecap="butt" stroke-linejoin="miter" stroke-miterlimit="10" stroke-dasharray="" stroke-dashoffset="0" font-family="none" font-weight="none" font-size="none" text-anchor="none" style="mix-blend-mode: normal"><g transform="translate(0,256) scale(0.26667,0.26667)"><path d="M784,-120l-252,-252c-20,16 -43,28.66667 -69,38c-26,9.33333 -53.66667,14 -83,14c-72.66667,0 -134.16667,-25.16667 -184.5,-75.5c-50.33333,-50.33333 -75.5,-111.83333 -75.5,-184.5c0,-72.66667 25.16667,-134.16667 75.5,-184.5c50.33333,-50.33333 111.83333,-75.5 184.5,-75.5c72.66667,0 134.16667,25.16667 184.5,75.5c50.33333,50.33333 75.5,111.83333 75.5,184.5c0,29.33333 -4.66667,57 -14,83c-9.33333,26 -22,49 -38,69l252,252zM380,-400c50,0 92.5,-17.5 127.5,-52.5c35,-35 52.5,-77.5 52.5,-127.5c0,-50 -17.5,-92.5 -52.5,-127.5c-35,-35 -77.5,-52.5 -127.5,-52.5c-50,0 -92.5,17.5 -127.5,52.5c-35,35 -52.5,77.5 -52.5,127.5c0,50 17.5,92.5 52.5,127.5c35,35 77.5,52.5 127.5,52.5z"></path></g></g></svg>

<svg xmlns="http://www.w3.org/2000/svg" height="24px" viewBox="0 -960 960 960" width="24px" fill="#e8eaed"><path d="M784-120 532-372q-30 24-69 38t-83 14q-109 0-184.5-75.5T120-580q0-109 75.5-184.5T380-840q109 0 184.5 75.5T640-580q0 44-14 83t-38 69l252 252-56 56ZM380-400q75 0 127.5-52.5T560-580q0-75-52.5-127.5T380-760q-75 0-127.5 52.5T200-580q0 75 52.5 127.5T380-400Z"/></svg>
